X:1
L:1/8
M:4/4
K:A
 e2 e>e f e2 f- | fe c/B/A c2 c/B/A/c/ | B2 B>B c B2 c- | cB A<G F3 A | B2 B>B c B2 c- | 
 cB A<G F3 E | F2 A>A BA F/E/D |1 E6 A/B/c/d/ :|2 E4- EA/B/ c/B/A/G/ |]: F2 G2 A2 c2 | F2 G2 A4 | 
 F2 G2 A2 c2 |1 c B3- BA/B/ c/B/A/G/ :|2 c B3- B2 A/B/c/d/ || </s><end_of_turn>
<start_of_turn>model
Sure, here is the extracted motif in ABC format:

e2 e>e f e2 f- | fe c/B/A c2 c/B/A/c/ | B2 B>B c B2 c- | cB A<G F3 A |<eos>

id:10
<bos><start_of_turn>user
You will see an instruction related to extracting the motif of a piece of ABC music. Your responses should only include the extracted motif in ABC format.

data is:
Human: Analyze the musical work and pinpoint the consistent melodic element in every section.
